X:34
T:Banks of Garry, The
R:Strathspey
C:John Crerar
B:The Athole Collection
M:C
L:1/8
K:D
F/G/|A>BA>F A>Bd>f|A>BA>F E/E/E ~EF/G/|A>B A<F A>Bd>f|
F>DE>F D/D/D D:|
f/g/|a>fd>f A<d f>d|e>df>d e/e/e ef/g/|a>f d<f e<df<d|B>AB>d F/F/F Ff/g/|
a>g d<f A<d f>d|e<d f>d e/e/e e2|f>de>d B>Ad>F|E>DE>F D/D/D D||

